Desktop/project_createx/public/images/Services/startup.svg

<svg width="48" height="48" viewBox="0 0 48 48" fill="none" xmlns="http://www.w3.org/2000/svg">
<g clip-path="url(#clip0_16317_235)">
<path d="M47.2439 1.60947C47.2231 1.40059 47.1326 1.19922 46.9768 1.04219L46.9668 1.03206C46.8089 0.872781 46.6047 0.779875 46.3927 0.758968C41.4092 -0.374563 36.1825 -0.231407 31.2684 1.17456C26.3112 2.59272 21.764 5.26947 18.1181 8.91531L17.494 9.5395H8.94406C8.69543 9.5395 8.45703 9.63831 8.28115 9.81409L0.274618 17.8205C-0.0914753 18.1866 -0.0914753 18.7803 0.274618 19.1465L4.08077 22.9528L3.23084 23.8027C2.86474 24.1688 2.86474 24.7625 3.23084 25.1287L6.47984 28.3777L3.92918 32.8923C3.72209 33.259 3.78481 33.7188 4.08256 34.0165L5.26784 35.2018C3.28146 37.4004 1.83659 40.0493 1.07121 42.9194L0.0317122 46.8166C-0.0545378 47.1398 0.0379934 47.4845 0.274618 47.7212C0.452743 47.8992 0.692181 47.9958 0.937618 47.9958C1.01806 47.9958 1.09934 47.9854 1.17912 47.9641L5.07631 46.9246C7.94627 46.1592 10.5953 44.7143 12.794 42.7277L13.9768 43.9106C14.1574 44.0911 14.3973 44.1852 14.64 44.1852C14.7977 44.1852 14.9565 44.1454 15.1009 44.064L19.6156 41.5134L22.8741 44.7719C23.0572 44.9549 23.2971 45.0465 23.537 45.0465C23.7769 45.0465 24.0168 44.9549 24.1999 44.7719L25.0499 43.9218L28.8418 47.7138C29.0177 47.8896 29.2561 47.9884 29.5047 47.9884C29.7534 47.9884 29.9918 47.8896 30.1677 47.7138L38.1741 39.7074C38.3499 39.5315 38.4487 39.2931 38.4487 39.0445V30.523L39.0871 29.8846C42.7329 26.2387 45.4096 21.6914 46.8279 16.7343C48.2343 11.82 48.3775 6.59294 47.2439 1.60947ZM2.26352 18.4834L9.33246 11.4146H15.6188L7.12249 19.911C7.12231 19.9112 7.12203 19.9113 7.12184 19.9116C7.12165 19.9119 7.12146 19.9121 7.12118 19.9124L5.40677 21.6268L2.26352 18.4834ZM4.59321 45.1128L2.2609 45.7348L2.88293 43.4025C3.56346 40.8509 4.84062 38.4932 6.59524 36.5289L11.4666 41.4002C9.50234 43.1551 7.14481 44.4323 4.59321 45.1128ZM14.7991 42.0809L13.5496 40.8314C13.5281 40.8044 13.5051 40.7782 13.4801 40.7532C13.4552 40.7283 13.429 40.7054 13.4021 40.6838L7.31206 34.5938C7.29049 34.5668 7.26752 34.5407 7.24259 34.5156C7.21765 34.4907 7.1914 34.4678 7.16449 34.4462L5.91246 33.1943L7.85609 29.7538L18.2396 40.1373L14.7991 42.0809ZM36.5742 38.6562L29.5052 45.7251L26.3762 42.596L36.5742 32.3982V38.6562V38.6562ZM37.7618 28.5588L24.3882 41.9322C24.388 41.9325 24.3876 41.9328 24.3873 41.933C24.387 41.9333 24.3867 41.9337 24.3865 41.934L23.5374 42.7831L20.4382 39.6839L20.4381 39.6838L8.30965 27.5554C8.30946 27.5553 8.30918 27.5551 8.30899 27.5548L5.21974 24.4656L7.78484 21.9005L20.2973 34.413C20.4804 34.596 20.7203 34.6876 20.9602 34.6876C21.2001 34.6876 21.44 34.596 21.6231 34.413C21.9892 34.0469 21.9892 33.4532 21.6231 33.087L9.11074 20.5745L19.4441 10.2411C26.323 3.36212 36.03 0.486718 45.5166 2.48641C47.5161 11.973 44.6407 21.6798 37.7618 28.5588Z" fill="#7772F1"/>
<path d="M34.936 19.0586C34.4184 19.0586 33.9985 19.4784 33.9985 19.9962L33.9981 20.0556C33.9939 20.5734 34.4102 20.9965 34.928 21.0007C34.9306 21.0007 34.9332 21.0008 34.9359 21.0008C35.45 21.0008 35.869 20.5859 35.8733 20.0707L35.8736 19.9962C35.8736 19.4784 35.4538 19.0586 34.936 19.0586Z" fill="#7772F1"/>
<path d="M34.4645 22.6816C34.0173 22.4203 33.4432 22.5711 33.182 23.0182C32.1086 24.8557 30.1217 25.9971 27.9966 25.9971C24.6879 25.9971 21.9962 23.3054 21.9962 19.9967C21.9962 16.6881 24.6879 13.9964 27.9966 13.9964C29.7752 13.9964 31.4516 14.7788 32.5961 16.143C32.929 16.5399 33.5206 16.5913 33.917 16.2587C34.3136 15.9259 34.3655 15.3346 34.0327 14.9378C32.5311 13.1477 30.331 12.1211 27.9966 12.1211C23.6541 12.1211 20.1211 15.6541 20.1211 19.9966C20.1211 24.3391 23.6541 27.872 27.9966 27.872C30.7855 27.872 33.3929 26.3745 34.801 23.9638C35.0623 23.517 34.9115 22.9428 34.4645 22.6816Z" fill="#7772F1"/>
<path d="M23.823 35.2885C23.6486 35.113 23.4077 35.0137 23.1602 35.0137C22.9136 35.0137 22.6717 35.1131 22.4974 35.2885C22.3231 35.4627 22.2227 35.7038 22.2227 35.9512C22.2227 36.1977 22.323 36.4396 22.4974 36.614C22.6717 36.7884 22.9136 36.8887 23.1602 36.8887C23.4078 36.8887 23.6486 36.7885 23.823 36.614C23.9983 36.4387 24.0977 36.1977 24.0977 35.9512C24.0977 35.7046 23.9983 35.4627 23.823 35.2885Z" fill="#7772F1"/>
</g>
<defs>
<clipPath id="clip0_16317_235">
<rect width="48" height="48" fill="white"/>
</clipPath>
</defs>
</svg>

<svg xmlns="http://www.w3.org/2000/svg" width="48" height="48" fill="none"><g fill="#7772F1" clip-path="url(#a)"><path d="M47.244 1.61a.94.94 0 0 0-.267-.568l-.01-.01a.94.94 0 0 0-.574-.273 30.5 30.5 0 0 0-15.125.416 30.5 30.5 0 0 0-13.15 7.74l-.624.625h-8.55a.94.94 0 0 0-.663.274L.275 17.82a.94.94 0 0 0 0 1.326l3.806 3.807-.85.85a.94.94 0 0 0 0 1.326l3.249 3.249-2.55 4.514a.94.94 0 0 0 .153 1.124l1.185 1.186a18.7 18.7 0 0 0-4.197 7.717l-1.04 3.898a.938.938 0 0 0 1.148 1.147l3.897-1.04a18.7 18.7 0 0 0 7.718-4.196l1.183 1.183a.94.94 0 0 0 1.124.153l4.515-2.55 3.258 3.258a.935.935 0 0 0 1.326 0l.85-.85 3.792 3.792a.94.94 0 0 0 1.326 0l8.006-8.007a.94.94 0 0 0 .275-.663v-8.521l.638-.638a30.5 30.5 0 0 0 7.74-13.15 30.5 30.5 0 0 0 .417-15.126M2.264 18.482l7.068-7.068h6.287L7.122 19.91v.001l-1.715 1.715zm2.33 26.63-2.333.622.622-2.332a16.85 16.85 0 0 1 3.712-6.874l4.872 4.871a16.84 16.84 0 0 1-6.874 3.713m10.205-3.032-1.25-1.25a1 1 0 0 0-.147-.147l-6.09-6.09a1 1 0 0 0-.148-.148l-1.252-1.252 1.944-3.44L18.24 40.137zm21.775-3.425-7.069 7.07-3.129-3.13 10.198-10.198zm1.188-10.097L24.388 41.932v.001l-.002.001-.849.85-3.099-3.1L8.31 27.555h-.001l-3.09-3.09 2.566-2.564 12.512 12.512a.935.935 0 0 0 1.326 0 .94.94 0 0 0 0-1.326L9.111 20.574l10.333-10.333C26.323 3.362 36.03.487 45.517 2.486c2 9.487-.876 19.194-7.755 26.073"/><path d="M34.936 19.059a.94.94 0 0 0-.937.937v.06a.937.937 0 0 0 .929.945h.008a.94.94 0 0 0 .937-.93v-.075a.94.94 0 0 0-.937-.937"/><path d="M34.465 22.682a.937.937 0 0 0-1.283.336 6.03 6.03 0 0 1-5.185 2.98c-3.31 0-6-2.693-6-6.001s2.69-6 6-6a5.99 5.99 0 0 1 4.6 2.146.938.938 0 0 0 1.436-1.205 7.86 7.86 0 0 0-6.036-2.817c-4.343 0-7.876 3.533-7.876 7.876 0 4.342 3.533 7.875 7.876 7.875a7.91 7.91 0 0 0 6.804-3.908.937.937 0 0 0-.337-1.282M23.823 35.289a.938.938 0 1 0-1.327 1.326.938.938 0 0 0 1.327-1.327"/></g><defs><clipPath id="a"><path fill="#fff" d="M0 0h48v48H0z"/></clipPath></defs></svg>
